storage/app/icons/phosphoricons/bold/lamp-pendant-bold.svg

<svg xmlns="http://www.w3.org/2000/svg" fill="currentColor" viewBox="0 0 256 256"><path d="M180 72.28V72a20 20 0 0 0-20-20h-20V16a12 12 0 0 0-24 0v36H96a20 20 0 0 0-20 20v.28A115.7 115.7 0 0 0 12 176a12 12 0 0 0 12 12h60.19a44 44 0 0 0 87.62 0H232a12 12 0 0 0 12-12 115.7 115.7 0 0 0-64-103.72M128 204a20 20 0 0 1-19.6-16h39.2a20 20 0 0 1-19.6 16m-91.22-40a91.75 91.75 0 0 1 55.84-72.95A12 12 0 0 0 100 80v-4h56v4a12 12 0 0 0 7.38 11.08 91.75 91.75 0 0 1 55.84 73Z"/></svg>

<svg xmlns="http://www.w3.org/2000/svg" viewBox="0 0 256 256" fill="currentColor"><path d="M180,72.28V72a20,20,0,0,0-20-20H140V16a12,12,0,0,0-24,0V52H96A20,20,0,0,0,76,72v.28A115.7,115.7,0,0,0,12,176a12,12,0,0,0,12,12H84.19a44,44,0,0,0,87.62,0H232a12,12,0,0,0,12-12A115.7,115.7,0,0,0,180,72.28ZM128,204a20,20,0,0,1-19.6-16h39.2A20,20,0,0,1,128,204ZM36.78,164A91.75,91.75,0,0,1,92.62,91.05,12,12,0,0,0,100,80V76h56v4a12,12,0,0,0,7.38,11.08,91.75,91.75,0,0,1,55.84,73Z"/></svg>
